icons/phone.svg

<svg width="24" height="24" viewBox="0 0 24 24" fill="none" xmlns="http://www.w3.org/2000/svg">
<path d="M18.525 23.493C17.743 23.493 16.986 23.266 16.338 22.837C10.288 18.817 5.18298 13.712 1.16298 7.66305C0.123976 6.09605 0.334976 3.99505 1.66598 2.66705L3.00998 1.32105C3.54098 0.790047 4.24698 0.498047 4.99898 0.498047C5.75098 0.498047 6.45698 0.790047 6.98798 1.32105L9.44198 3.77205C10.537 4.86905 10.537 6.65305 9.44298 7.75005L8.94598 8.24805C11.004 10.707 13.292 12.996 15.751 15.055L16.247 14.559C16.784 14.025 17.488 13.735 18.236 13.735C18.988 13.735 19.694 14.028 20.225 14.559L22.679 17.013C23.775 18.11 23.774 19.894 22.678 20.99L21.333 22.336C20.586 23.082 19.589 23.493 18.525 23.493ZM4.99898 1.49805C4.51398 1.49805 4.05898 1.68605 3.71698 2.02805L2.37298 3.37405C1.37798 4.36705 1.21998 5.93805 1.99698 7.10905C5.94198 13.047 10.953 18.058 16.891 22.003C17.375 22.324 17.94 22.493 18.526 22.493C19.322 22.493 20.069 22.186 20.628 21.628L21.973 20.283C22.68 19.576 22.68 18.427 21.974 17.72L19.52 15.266C19.178 14.924 18.723 14.735 18.239 14.735C17.755 14.735 17.3 14.923 16.958 15.265L16.139 16.084C16.045 16.178 15.919 16.23 15.785 16.23C15.67 16.23 15.557 16.19 15.468 16.116C12.708 13.845 10.158 11.294 7.88698 8.53305C7.72298 8.33305 7.73698 8.04505 7.91898 7.86205L8.73698 7.04205C9.44298 6.33505 9.44298 5.18405 8.73698 4.47705L6.28198 2.02805C5.93998 1.68605 5.48398 1.49805 4.99898 1.49805Z" fill="#009ACE"/>
</svg>

<?xml version="1.0" encoding="utf-8"?>
<!-- Generator: Adobe Illustrator 22.1.0, SVG Export Plug-In . SVG Version: 6.00 Build 0)  -->
<svg version="1.1" id="Layer_1" xmlns="http://www.w3.org/2000/svg" xmlns:xlink="http://www.w3.org/1999/xlink" x="0px" y="0px"
	 viewBox="0 0 24 24" style="enable-background:new 0 0 24 24;" xml:space="preserve">
<g>
	<title>phone</title>
	<path d="M18.525,23.493c-0.782,0-1.539-0.227-2.187-0.656c-6.05-4.02-11.155-9.125-15.175-15.174
		C0.124,6.096,0.335,3.995,1.666,2.667L3.01,1.321c0.531-0.531,1.237-0.823,1.989-0.823c0.752,0,1.458,0.292,1.989,0.823
		l2.454,2.451c1.095,1.097,1.095,2.881,0.001,3.978L8.946,8.248c2.058,2.459,4.346,4.748,6.805,6.807l0.496-0.496
		c0.537-0.534,1.241-0.824,1.989-0.824c0.752,0,1.458,0.293,1.989,0.824l2.454,2.454c1.096,1.097,1.095,2.881-0.001,3.977
		l-1.345,1.346C20.586,23.082,19.589,23.493,18.525,23.493z M4.999,1.498c-0.485,0-0.94,0.188-1.282,0.53L2.373,3.374
		C1.378,4.367,1.22,5.938,1.997,7.109c3.945,5.938,8.956,10.949,14.894,14.894c0.484,0.321,1.049,0.49,1.635,0.49
		c0.796,0,1.543-0.307,2.102-0.865l1.345-1.345c0.707-0.707,0.707-1.856,0.001-2.563c0,0-2.454-2.454-2.454-2.454
		c-0.342-0.342-0.797-0.531-1.281-0.531c-0.484,0-0.939,0.188-1.281,0.53l-0.819,0.819c-0.094,0.094-0.22,0.146-0.354,0.146
		c-0.115,0-0.228-0.04-0.317-0.114c-2.76-2.271-5.31-4.822-7.581-7.583c-0.164-0.2-0.15-0.488,0.032-0.671l0.818-0.82
		c0.706-0.707,0.706-1.858,0-2.565L6.282,2.028C5.94,1.686,5.484,1.498,4.999,1.498z"/>
</g>
</svg>
